sprites/streets-v8/_svg/religious-muslim-11.svg

<?xml version="1.0" encoding="utf-8"?>
<!-- Generator: Adobe Illustrator 17.1.0, SVG Export Plug-In . SVG Version: 6.00 Build 0)  -->
<!DOCTYPE svg PUBLIC "-//W3C//DTD SVG 1.1//EN" "http://www.w3.org/Graphics/SVG/1.1/DTD/svg11.dtd">
<svg version="1.1"
	 id="svg2" xmlns:svg="http://www.w3.org/2000/svg" xmlns:cc="http://creativecommons.org/ns#" xmlns:dc="http://purl.org/dc/elements/1.1/" xmlns:rdf="http://www.w3.org/1999/02/22-rdf-syntax-ns#"
	 xmlns="http://www.w3.org/2000/svg" xmlns:xlink="http://www.w3.org/1999/xlink" x="0px" y="0px" width="19px" height="19px"
	 viewBox="0 0 19 19" enable-background="new 0 0 19 19" xml:space="preserve">
<ellipse id="ellipse4" fill="#FFFFFF" cx="9.5" cy="9.5" rx="9.5" ry="9.5"/>
<ellipse id="ellipse6" fill="#A9A199" cx="9.5" cy="9.5" rx="8.5" ry="8.5"/>
<g id="g8" transform="translate(4,4.5)">
	<path id="path16908" fill="#FFFFFF" d="M4.9,0C2.2,0,0,2.2,0,4.9s2.2,4.9,4.9,4.9c0.9,0,1.7-0.2,2.4-0.6H6.7
		c-2.4,0-4.3-1.9-4.3-4.3s1.9-4.3,4.3-4.3h0.6C6.5,0.2,5.8,0,4.9,0z M8.5,2L7.7,3.7L6,4l1,1.5L6.5,7l2-1l2,1L10,5.5L11,4L9.5,3.7
		L8.5,2z"/>
</g>
</svg>

<?xml version="1.0" encoding="UTF-8" standalone="no"?>
<svg
   xmlns:dc="http://purl.org/dc/elements/1.1/"
   xmlns:cc="http://creativecommons.org/ns#"
   xmlns:rdf="http://www.w3.org/1999/02/22-rdf-syntax-ns#"
   xmlns:svg="http://www.w3.org/2000/svg"
   xmlns="http://www.w3.org/2000/svg"
   id="svg2"
   width="19"
   height="19"
   viewBox="0 0 19 19"
   version="1.1">
  <metadata
     id="metadata14">
    <rdf:RDF>
      <cc:Work
         rdf:about="">
        <dc:format>image/svg+xml</dc:format>
        <dc:type
           rdf:resource="http://purl.org/dc/dcmitype/StillImage" />
      </cc:Work>
    </rdf:RDF>
  </metadata>
  <defs
     id="defs12" />
  <ellipse
     id="ellipse4"
     ry="9.5"
     rx="9.5"
     cy="9.5"
     cx="9.5"
     style="fill:#ffffff;stroke:none;" />
  <ellipse
     id="ellipse6"
     rx="8.5"
     ry="8.5"
     cy="9.5"
     cx="9.5"
     style="fill:#a9a199;stroke:none;" />
  <g
     id="g8"
     transform="translate(4,4.5)">
    <metadata     id="metadata8"><rdf:RDF><cc:Work         rdf:about=""><dc:format>image/svg+xml</dc:format><dc:type           rdf:resource="http://purl.org/dc/dcmitype/StillImage" /><dc:title /></cc:Work></rdf:RDF></metadata><defs     id="defs6" /><path     d="M 4.9,0 C 2.2,0 0,2.2 0,4.9 0,7.6 2.2,9.8 4.9,9.8 5.8,9.8 6.6,9.6 7.3,9.2 l -0.6,0 C 4.3,9.2 2.4,7.3 2.4,4.9 2.4,2.5 4.3,0.6 6.7,0.6 l 0.6,0 C 6.5,0.2 5.8,0 4.9,0 Z M 8.5,2 7.6845339,3.7 6,4 7,5.5 6.5,7 8.5,6 10.5,7 10,5.5 11,4 9.5,3.7 Z"     id="path16908"     style="fill:#ffffff;fill-opacity:1" />
  </g>
</svg>
